22x22/apps/net.bartkessels.getit.svg

<svg xmlns="http://www.w3.org/2000/svg" width="22" height="22" version="1">
 <rect style="opacity:.2" width="10.5" height="6" x="-16.5" y="12.5" rx="1" ry="1" transform="scale(-1,1)"/>
 <rect style="opacity:.2" width="10.5" height="6" x="5.5" y="3.5" rx="1" ry="1"/>
 <rect style="fill:#2c6de3" width="10.5" height="6" x="-16.5" y="12" rx="1" ry="1" transform="scale(-1,1)"/>
 <path style="fill:#f4f4f7;opacity:.1" d="m7 12c-0.554 0-1 0.446-1 1v0.5c0-0.554 0.446-1 1-1h8.5c0.554 0 1 0.446 1 1v-0.5c0-0.554-0.446-1-1-1z"/>
 <rect style="fill:#53990f" width="10.5" height="6" x="5.5" y="3" rx="1" ry="1"/>
 <path style="fill:#f4f4f7;opacity:.1" d="m6.5 3.0000002c-0.554 0-1 0.446-1 1v0.5c0-0.554 0.446-1 1-1h8.5c0.554 0 1 0.446 1 1v-0.5c0-0.554-0.446-1-1-1z"/>
 <path style="opacity:.2" d="m14.942942 10.500437a0.91619455 1.0231252 0 0 1 0.431212 0.136869l3.083796 1.988101 3.083795 1.988101a0.91619455 1.0231252 0 0 1 0 1.772308l-3.083795 1.988101-3.083796 1.989099a0.91619455 1.0231252 0 0 1-1.374154-0.886153v-7.953404a0.91619455 1.0231252 0 0 1 0.942942-1.023022z"/>
 <path style="fill:#3ba4fa" d="m14.942942 10.000437a0.91619455 1.0231252 0 0 1 0.431212 0.136869l3.083796 1.988101 3.083795 1.988101a0.91619455 1.0231252 0 0 1 0 1.772308l-3.083795 1.988101-3.083796 1.989099a0.91619455 1.0231252 0 0 1-1.374154-0.886153v-7.953404a0.91619455 1.0231252 0 0 1 0.942942-1.023022z"/>
 <path style="opacity:.2" d="m7.0570585 1.5004365a0.91619455 1.0231252 0 0 0-0.4312125 0.1368697l-3.083796 1.988101-3.0837955 1.988101a0.91619455 1.0231252 0 0 0 0 1.7723075l3.0837955 1.9881014 3.083796 1.9890989a0.91619455 1.0231252 0 0 0 1.374154-0.886153v-7.9534037a0.91619455 1.0231252 0 0 0-0.9429415-1.0230228z"/>
 <path style="fill:#88d216" d="m7.0570585 1.0004364a0.91619455 1.0231252 0 0 0-0.4312125 0.1368697l-3.083796 1.988101-3.0837955 1.9881011a0.91619455 1.0231252 0 0 0 0 1.7723075l3.0837955 1.988101 3.083796 1.9890993a0.91619455 1.0231252 0 0 0 1.374154-0.8861529v-7.9534038a0.91619455 1.0231252 0 0 0-0.9429415-1.0230229z"/>
 <path style="fill:#f4f4f7;opacity:.2" d="m14.942383 10a0.91619455 1.0231252 0 0 0-0.942383 1.023438v0.5a0.91619455 1.0231252 0 0 1 0.94336-1.023438 0.91619455 1.0231252 0 0 1 0.430664 0.137696l3.083984 1.987304 3.083984 1.988281a0.91619455 1.0231252 0 0 1 0.429687 0.635743 0.91619455 1.0231252 0 0 0-0.429687-1.135743l-3.083984-1.988281-3.083984-1.987304a0.91619455 1.0231252 0 0 0-0.430664-0.137696 0.91619455 1.0231252 0 0 1-1e-3 0z"/>
 <path style="fill:#f4f4f7;opacity:.2" d="m7.0566405 1.0000002a0.91619455 1.0231252 0 0 0-0.430664 0.1376953l-3.0839845 1.9873047-3.0839842 1.988281a0.91619455 1.0231252 0 0 0-0.4296875 1.1357425 0.91619455 1.0231252 0 0 1 0.4296875-0.6357425l3.0839842-1.988281 3.0839845-1.9873047a0.91619455 1.0231252 0 0 1 0.430664-0.1376953 0.91619455 1.0231252 0 0 1 0.9433595 1.0234375v-0.5a0.91619455 1.0231252 0 0 0-0.9433595-1.0234375z"/>
</svg>

<svg xmlns="http://www.w3.org/2000/svg" width="22" height="22" version="1"><rect style="opacity:.2" width="10.5" height="6" x="-16.5" y="12.5" rx="1" ry="1" transform="scale(-1 1)"/><rect style="opacity:.2" width="10.5" height="6" x="5.5" y="3.5" rx="1" ry="1"/><rect style="fill:#2c6de3" width="10.5" height="6" x="-16.5" y="12" rx="1" ry="1" transform="scale(-1 1)"/><path style="fill:#f4f4f7;opacity:.1" d="M7 12c-.554 0-1 .446-1 1v.5c0-.554.446-1 1-1h8.5c.554 0 1 .446 1 1V13c0-.554-.446-1-1-1z"/><rect style="fill:#53990f" width="10.5" height="6" x="5.5" y="3" rx="1" ry="1"/><path style="fill:#f4f4f7;opacity:.1" d="M6.5 3c-.554 0-1 .446-1 1v.5c0-.554.446-1 1-1H15c.554 0 1 .446 1 1V4c0-.554-.446-1-1-1z"/><path style="opacity:.2" d="M14.943 10.5a.916 1.023 0 0 1 .431.137l3.084 1.988 3.084 1.989a.916 1.023 0 0 1 0 1.772l-3.084 1.988-3.084 1.989A.916 1.023 0 0 1 14 19.477v-7.954a.916 1.023 0 0 1 .943-1.023z"/><path style="fill:#3ba4fa" d="M14.943 10a.916 1.023 0 0 1 .431.137l3.084 1.988 3.084 1.989a.916 1.023 0 0 1 0 1.772l-3.084 1.988-3.084 1.989A.916 1.023 0 0 1 14 18.977v-7.954A.916 1.023 0 0 1 14.943 10z"/><path style="opacity:.2" d="M7.057 1.5a.916 1.023 0 0 0-.431.137L3.542 3.625.458 5.614a.916 1.023 0 0 0 0 1.772l3.084 1.988 3.084 1.989A.916 1.023 0 0 0 8 10.477V2.523A.916 1.023 0 0 0 7.057 1.5z"/><path style="fill:#88d216" d="M7.057 1a.916 1.023 0 0 0-.431.137L3.542 3.125.458 5.114a.916 1.023 0 0 0 0 1.772l3.084 1.988 3.084 1.989A.916 1.023 0 0 0 8 9.977V2.023A.916 1.023 0 0 0 7.057 1z"/><path style="fill:#f4f4f7;opacity:.2" d="M14.942 10A.916 1.023 0 0 0 14 11.023v.5a.916 1.023 0 0 1 .943-1.023.916 1.023 0 0 1 .431.138l3.084 1.987 3.084 1.988a.916 1.023 0 0 1 .43.636.916 1.023 0 0 0-.43-1.136l-3.084-1.988-3.084-1.987a.916 1.023 0 0 0-.43-.138.916 1.023 0 0 1-.002 0zM7.057 1a.916 1.023 0 0 0-.431.138L3.542 3.125.458 5.113a.916 1.023 0 0 0-.43 1.136.916 1.023 0 0 1 .43-.636l3.084-1.988 3.084-1.987a.916 1.023 0 0 1 .43-.138A.916 1.023 0 0 1 8 2.523v-.5A.916 1.023 0 0 0 7.057 1z"/></svg>
